X:2858
L:1/8
M:6/8
K:G
|: d/c/ | BAG AGE | GBd gfe | ded BGA | BAA Adc | BAG AGE | GBd gfe | ded BGA | BGG G2 :: B/c/ | 
 d2 g gfg | eaa aga | bge dBG |1 BAG A2 B/c/ | d2 g gfg | eaa aga | bge dBG | AGF G2 :|

